X: 336
T:Cleveland Park
% Nottingham Music Database
S:Wolfstone, Arr EF/HJF
M:6/8
K:Dm
Ade fed|Bde fed|=Bde fed|ege fed|
Ade fed|Bde fed|ege c2g|gfe dz2:|
dfa d'af|gab afd|Bdf Adf|fed ^cde|
dfa d'af|gab afd|Bdf Aef|ed^c dz2|
dfa d'af|gab afd|Bdf Adf|fed ^cde|
Ade fed|Bde fed|ege c2g|gfe dz2||


